X:4
T:Alleluia/The Birks Of Aberfeldie
M:4/4
L:1/16
K:C
V:1
% vibes
%%MIDI program 11
c4 G4 A4 E4| F4 (E2D2) G4 E4| C4 (D2E2) F4 G4| A4 B4 (c2B2) c4||
w:Al-le-lu-ia Al-le-*lu-ia Al-le-*lu-ia Al-le-lu-*ia
c4 G4 A4 E4| F4 (E2D2) G4 E4| C4 (D2E2) F4 G4| A4 B4 (c2B2) c4||
w:Al-le-lu-ia Al-le-*lu-ia Al-le-*lu-ia Al-le-lu-*ia
c4 G4 A4 E4| F4 (E2D2) G4 E4| C4 (D2E2) F4 G4| A4 B4 (c2B2) c4||
w:Al-le-lu-ia Al-le-*lu-ia Al-le-*lu-ia Al-le-lu-*ia
c4 G4 A4 E4| F4 (E2D2) G4 E4| C4 (D2E2) F4 G4| A4 B4 (c2B2) c4||
w:Al-le-lu-ia Al-le-*lu-ia Al-le-*lu-ia Al-le-lu-*ia
V:2
% cello
%%MIDI program 42
z16|z16|z16|z16|z16|C3D E2G2 c3c (c2A2)| c3d (c2A2) (Bc)d2 (cde2)| C3D E2G2 c3d e2ed|c3A G2E2 D4 A2C2| C3D E2c2 G2C2 G2C2| G2C2 E2G2 (AG)(FE) D3E|C3D E2G2 c3d e2ed| c3A G2E2 D4 A4||
w: Bon-nie las-sie, will ye go,* will ye go,* will* ye go,** Bon-nie las-sie, will ye go To the birks of A-ber-fel-die? Now sim-mer blinks on flow'-ry braes, And o'er the crys-tal stream-*let* plays, Come, let us spend the light-some days In the birks of A-ber-fel-die!

